X: 34578
T: Rising Of The Sun, The
R: hornpipe
M: 4/4
K: Dmajor
|:gfe|d2 FB A2 FA|Bdeg fBcA|d2 FB A2 FD|EGFE Dgfe|
d2 FB A2 FA|Bdeg fBcA|d2 dB A2 FA|BdcB A-:|
|:ABc|defg afed|cAeA fAeA|defg afed|cABc d3 A|
defg afed|cAeA fAeA|1 defg abag|fgfe d2:|
[2 df f2 dg g2|fgfe d||

